epam-assets/icon-sources/18/internal-logo/l&d.svg

<svg width="18" height="18" viewBox="0 0 18 18" fill="none" xmlns="http://www.w3.org/2000/svg">
<g id="18/Internal-logo/l&#38;d">
<path id="icon" fill-rule="evenodd" clip-rule="evenodd" d="M8.78271 9.33794C8.84471 9.37972 8.9195 9.40412 8.99998 9.40412C9.21416 9.40412 9.388 9.2313 9.388 9.01808C9.388 8.88714 9.32244 8.77144 9.22225 8.70164C9.16052 8.66044 9.08624 8.6364 9.00631 8.6364C8.79212 8.6364 8.61829 8.80922 8.61829 9.02244C8.61829 9.1528 8.68326 9.26805 8.78271 9.33794ZM8.48013 7.84708L8.47828 1.5L9.50567 2.11117L14.0816 4.73948C14.2911 4.59431 14.5457 4.50918 14.8202 4.50918C15.5346 4.50918 16.1136 5.08528 16.1136 5.79597C16.1136 6.30617 15.8152 6.747 15.3825 6.95512V12.8046L9.54741 16.1561L9.54729 16.1561L9.01233 16.4635L9.0123 16.4635V16.5L8.48277 16.1957L2.64224 12.841L2.62797 7.1017C2.18956 6.8957 1.88623 6.45179 1.88623 5.93751C1.88623 5.22682 2.46529 4.65073 3.17964 4.65073C3.89386 4.65073 4.47305 5.22682 4.47305 5.93751C4.47305 6.46552 4.15324 6.91935 3.69585 7.11769L3.71138 12.2268L8.48221 14.9673L8.48082 10.1982C8.0289 9.99756 7.71393 9.54663 7.71393 9.02248C7.71393 8.49859 8.02858 8.04785 8.48013 7.84708ZM9.54729 10.1921V14.9281L14.3134 12.1904V6.98019C13.851 6.78405 13.5268 6.32768 13.5268 5.79597C13.5268 5.74783 13.5295 5.7003 13.5346 5.65353L9.54729 3.3632V7.85283C9.99201 8.05636 10.3008 8.50353 10.3008 9.02248C10.3008 9.54142 9.99201 9.9886 9.54729 10.1921ZM14.4324 5.796C14.4324 5.99999 14.5916 6.16701 14.7929 6.18107C14.8019 6.18169 14.811 6.18201 14.8201 6.18201C15.0344 6.18201 15.2081 6.00919 15.2081 5.79597C15.2081 5.59197 15.0491 5.42496 14.8477 5.41089C14.8387 5.41028 14.8296 5.40996 14.8205 5.40996C14.6063 5.40996 14.4324 5.58278 14.4324 5.796ZM2.78967 5.93752C2.78967 6.15074 2.96351 6.32356 3.1777 6.32356C3.39201 6.32356 3.56572 6.15074 3.56572 5.93752C3.56572 5.7243 3.39201 5.55148 3.1777 5.55148C2.96351 5.55148 2.78967 5.7243 2.78967 5.93752Z" fill="#6C6F80"/>
</g>
</svg>

<svg xmlns="http://www.w3.org/2000/svg" width="18" height="18" fill="none" viewBox="0 0 18 18">
  <path fill="#6C6F80" fill-rule="evenodd" d="M8.783 9.338a.388.388 0 0 0 .44-.636.388.388 0 0 0-.605.32c0 .13.065.246.165.316Zm-.303-1.49L8.478 1.5l1.028.611 4.576 2.628c.21-.145.464-.23.738-.23a1.286 1.286 0 0 1 .562 2.446v5.85l-5.835 3.351-.535.308v.036l-.53-.304-5.84-3.355-.014-5.74a1.287 1.287 0 0 1 .552-2.45 1.29 1.29 0 0 1 1.293 1.287c0 .528-.32.981-.777 1.18l.015 5.109 4.771 2.74-.001-4.769a1.287 1.287 0 0 1-.767-1.176c0-.523.315-.974.766-1.175Zm1.067 2.344v4.736l4.766-2.738V6.98a1.287 1.287 0 0 1-.778-1.326l-3.988-2.29v4.489a1.287 1.287 0 0 1 0 2.34Zm4.885-4.396a.387.387 0 1 0 .416-.385l-.028-.001a.387.387 0 0 0-.388.386ZM2.79 5.938c0 .213.174.386.388.386a.387.387 0 0 0 .388-.386.387.387 0 0 0-.388-.387.387.387 0 0 0-.388.387Z" clip-rule="evenodd"/>
</svg>
